public/svg/news/categories/business.svg

<?xml version='1.0' encoding='iso-8859-1'?>
<!DOCTYPE svg PUBLIC '-//W3C//DTD SVG 1.1//EN' 'http://www.w3.org/Graphics/SVG/1.1/DTD/svg11.dtd'>
<svg fill="#697391" version="1.1" xmlns="http://www.w3.org/2000/svg" viewBox="0 0 267.102 267.102" xmlns:xlink="http://www.w3.org/1999/xlink" enable-background="new 0 0 267.102 267.102">
  <g>
    <path d="m260.102,69.043h-81.551v-14.344c0-8.562-6.966-15.528-15.527-15.528h-58.945c-8.562,0-15.527,6.966-15.527,15.528v14.344h-81.552c-3.866,0-7,3.134-7,7v144.888c0,3.866 3.134,7 7,7h253.102c3.866,0 7-3.134 7-7v-144.888c0-3.866-3.134-7-7-7zm-7,14v2.218l-111.345,64.918c-6.211,3.638-13.897,3.588-20.061-0.13l-107.696-64.635v-2.371h239.102zm-239.102,18.393l100.465,60.601c5.344,3.224 11.355,4.838 17.37,4.838 5.87,0 11.742-1.538 16.998-4.616l104.269-61.073v112.744h-239.102v-112.494zm88.551-46.737c0-0.842 0.686-1.528 1.527-1.528h58.945c0.842,0 1.527,0.686 1.527,1.528v14.344h-62v-14.344z"/>
  </g>
</svg>

<svg fill="#697391" xmlns="http://www.w3.org/2000/svg" viewBox="0 0 267.102 267.102"><path d="M260.102 69.043h-81.551V54.699c0-8.562-6.966-15.528-15.527-15.528h-58.945c-8.562 0-15.527 6.966-15.527 15.528v14.344H7a7 7 0 0 0-7 7v144.888a7 7 0 0 0 7 7h253.102a7 7 0 0 0 7-7V76.043a7 7 0 0 0-7-7zm-7 14v2.218l-111.345 64.918a19.616 19.616 0 0 1-20.061-.13L14 85.414v-2.371h239.102zM14 101.436l100.465 60.601a33.596 33.596 0 0 0 34.368.222l104.269-61.073V213.93H14V101.436zm88.551-46.737a1.53 1.53 0 0 1 1.527-1.528h58.945a1.53 1.53 0 0 1 1.527 1.528v14.344h-62V54.699z"/></svg>
